X: 3150
T: Beauty Spot, The
R: reel
M: 4/4
K: Dmixolydian
F3E F2BA|F2EC A,B,CE|~F3E ~F2BA|FAEA, CB,CE|
~F3E F2BA|F2EC A,B,CE|~F3A ~G3B|AFEA, CB,CE||
cBAB cB~B2|ceAB cafe|cBAB cB~B2|EFAB cB~B2|
c2AB cB~B2|ceAB cafe|~c3A BcBA|EFAB cABA||
B3A B2ed|B2AF DEFA|~B3A ~B2ed|BdAD FEFA|
~B3A B2ed|B2AF DEFA|~B3d ~c3e|dBAD FEFA||
fede fe~e2|fade fbba|fede fe~e2|ABde fe~e2|
fede fe~e2|fade fbba|~f3d efed|ABde fded||
A3G A2dc|A2GE CDEG|~A3G ~A2dc|AcGC EDEG|
~A3G A2dc|A2GE CDEG|~A3c ~B3d|cAGC EDEG||
edcd ed~d2|egcd eaag|edcd ed~d2|GAcd ed~d2|
edcd ed~d2|egcd eaag|~e3c dedc|GAcd ecdc||
A3G A2dB|BccG DEGE|GA (3BAG AdcA|BAGd edBG|
A3G A2dB|BccG DEGE|GA (3BAG AdcA|BAGd edd2||
eddA ed~d2|edcd efgd|e2dA edcA|GAcd edd2|
e2dA edcd|edcd efg2|fgef decd|ABcA GA (3BAG||
Variations for the last bar are|BcAB GAEG|and|ABGA EFGE|
A3G A2dB|~c3G EFGE|A2AG AddB|cBcG EDDG|
A3G A2dB|~c3G EFGE|A3c ~B3d|cBcG EDD2||
ed~d2 edcd|ed~d2 eaag|ed~d2 edcA|GAcd ed~d2|
ed~d2 edcd|ed~d2 eaag|fgef decA|GAcd egdc||

